X: 5
U:~=!turn!
M:C
L:1/8
K:D dorian
e/d/ | {AB}c<AA>G E<AA>B | {AB}c<AA>B {/B}e2 e>d | {/B}c<AA>G EAAc | B<GG>B {/^c}d2 d:|
{AB}c>de>f g>ag>e | {AB}c>de>f g2 g>a | _b>ga>f g>ef>d | B<GG>B {/^c}d2 d|]


